tools/download-figma-icons/icons/action/link.svg

<svg width="24" height="24" viewBox="0 0 24 24" fill="none" xmlns="http://www.w3.org/2000/svg">
<path fill-rule="evenodd" clip-rule="evenodd" d="M9.92519 14.0747C10.8499 14.9994 12.0642 15.4622 13.2792 15.4622C14.4942 15.4622 15.7084 14.9994 16.6332 14.0747L21.1107 9.59716C22.0069 8.70091 22.4997 7.50991 22.4997 6.24316C22.4997 4.97641 22.0069 3.78541 21.1107 2.88916C19.2619 1.04041 16.2522 1.04041 14.4222 2.87041L11.5992 5.56066C11.1492 5.98891 11.1319 6.70066 11.5602 7.15141C11.9892 7.60066 12.7017 7.61791 13.1509 7.18966L15.9934 4.47991C16.9662 3.50866 18.5472 3.50866 19.5199 4.47991C19.9909 4.95091 20.2497 5.57716 20.2497 6.24316C20.2497 6.90916 19.9909 7.53541 19.5199 8.00641L15.0424 12.4839C14.0697 13.4544 12.4879 13.4552 11.5159 12.4839C11.0764 12.0444 10.3647 12.0444 9.92519 12.4839C9.48569 12.9234 9.48569 13.6352 9.92519 14.0747ZM2.88937 21.1103C3.81637 22.038 5.03437 22.5 6.25012 22.5C7.45912 22.5 8.66512 22.0425 9.57787 21.1298L12.4009 18.4395C12.8509 18.0113 12.8681 17.2988 12.4391 16.8488C12.0101 16.3995 11.2976 16.3823 10.8491 16.8105L8.00662 19.5195C7.03312 20.49 5.45212 20.4908 4.48012 19.5195C4.00912 19.0485 3.75037 18.4223 3.75037 17.757C3.75037 17.091 4.00912 16.4648 4.48012 15.9938L8.95762 11.5155C9.92962 10.545 11.5114 10.5443 12.4841 11.5155C12.9229 11.955 13.6354 11.955 14.0749 11.5155C14.5144 11.0768 14.5144 10.3643 14.0749 9.92476C12.2254 8.07676 9.21637 8.07676 7.36687 9.92476L2.88937 14.403C1.99312 15.2985 1.50037 16.4895 1.50037 17.757C1.50037 19.0238 1.99312 20.2148 2.88937 21.1103Z" fill="black"/>
</svg>

<svg xmlns="http://www.w3.org/2000/svg" width="24" height="24" fill="none" viewBox="0 0 24 24"><path fill="currentColor" fill-rule="evenodd" d="M9.925 14.075a4.73 4.73 0 0 0 3.354 1.387 4.73 4.73 0 0 0 3.354-1.387l4.478-4.478A4.7 4.7 0 0 0 22.5 6.243a4.7 4.7 0 0 0-1.39-3.354c-1.848-1.849-4.858-1.849-6.688-.019L11.6 5.56a1.125 1.125 0 1 0 1.552 1.63l2.842-2.71a2.5 2.5 0 0 1 3.527 0c.47.47.73 1.097.73 1.763s-.26 1.292-.73 1.763l-4.478 4.478a2.5 2.5 0 0 1-3.526 0 1.124 1.124 0 1 0-1.59 1.59M2.89 21.11a4.74 4.74 0 0 0 3.36 1.39 4.7 4.7 0 0 0 3.328-1.37l2.823-2.69a1.125 1.125 0 1 0-1.552-1.63l-2.842 2.71a2.5 2.5 0 0 1-3.527 0 2.48 2.48 0 0 1-.73-1.763c0-.666.26-1.292.73-1.763l4.478-4.478a2.5 2.5 0 0 1 3.526 0 1.124 1.124 0 1 0 1.59-1.591 4.75 4.75 0 0 0-6.707 0l-4.478 4.478A4.7 4.7 0 0 0 1.5 17.757c0 1.267.493 2.458 1.39 3.353" clip-rule="evenodd"/></svg>
